X:1
T:Title
%%score { ( 1 4 ) | ( 2 3 ) }
L:1/8
Q:1/4=100
M:4/4
K:Db
V:1 treble nm="Grand Piano"
V:4 treble 
V:2 bass 
V:3 bass 
V:1
 [FA]2 [DF]>[FA] [Fd]3 [FA] | c2 B2 G2 B2 | ABcd e2 c2 |[M:3/4] [Fd]6 |[M:1/4] [FA]2 | %5
w: B.~D.~Ackley * * * *|||||
[M:4/4] B3 G d2 B2 | [FA]2 [DF]2 [FA]2 [_FB]2 | [Ec]3 [Ec] [=Gd]2 [GB]2 |[M:3/4] e6 |[M:1/4] A2 | %10
w: |||||
[M:4/4] [Af]3 [Ge] [Fd]3 [DFA] | [DAc]2 [DGB]2 [DFA]2 [DFA]2 | [DGB]3 [EAc] [DAd]2 [=Ge]2 | %13
w: |||
[M:3/4] e6 |[M:1/4] A2 |[M:4/4] [Af]3 [Ge] [Fd]2 [Ad]2 | [=Ge]3 [EGd] [EAc]2 [EAc]2 | %17
w: ||||
 AG[Ad][Be] [Af]2 [Ge]2 | [Fd]6 z2 |] %19
w: ||
V:2
 [D,D]2 [D,A,]>[D,D] [D,A,]3 [D,D] | [G,DG]2 [G,DG]2 [G,B,D]2[K:treble] [G,DG]2 | .C2 .E2 z4 | %3
[M:3/4][K:bass] [D,A,]6 |[M:1/4] [D,D]2 |[M:4/4] [G,DG]3 [G,B,D] [G,B,G]2 [G,DG]2 | %6
 [D,D]2 [D,A,]2 [D,D]2 [D,A,]2 | [E,A,]3 [E,A,] [E,B,]2 [E,D]2 |[M:3/4][K:treble] [A,CG]6 | %9
[M:1/4] [A,C]2 |[M:4/4][K:bass] [D,D]3 [D,A,] [D,A,]3 D, | G,,A,,B,,C, D,2 D,2 | %12
 G,3 E, F,2 [E,D]2 |[M:3/4][K:treble] [A,CA]6 |[M:1/4] [A,C]2 | %15
[M:4/4][K:bass] [D,D]3 [D,D] [D,A,]2 [F,D]2 | [E,D]3 E, A,B,A,G, | F,E,F,G, [A,D]2 [A,C]A, | %18
 [D,A,]6 z2 |] %19
V:3
 x8 | x6[K:treble] x2 | [A,G]-[A,DG][A,G]-[A,B,G] [A,CG]2 [A,G]2 |[M:3/4][K:bass] x6 |[M:1/4] x2 | %5
[M:4/4] x8 | x8 | x8 |[M:3/4][K:treble] x6 |[M:1/4] x2 |[M:4/4][K:bass] x8 | x8 | x8 | %13
[M:3/4][K:treble] x6 |[M:1/4] x2 |[M:4/4][K:bass] x8 | x8 | x8 | x8 |] %19
V:4
 x8 | x8 | x8 |[M:3/4] x6 |[M:1/4] x2 |[M:4/4] x8 | x8 | x8 |[M:3/4] x6 |[M:1/4] x2 |[M:4/4] x8 | %11
 x8 | x8 |[M:3/4] x6 |[M:1/4] x2 |[M:4/4] x8 | x8 | [Dd]2 D2 z4 | x8 |] %19

